X:30
T:Built for Comfort
M:6/8
C:© Paul Gitlitz 2009
N:Melody revised Halloween 2010
K:F
"F"aAA gAA|fgf c2f|"C"efe c2e|"F"fgf c2f|!
"F"aAA gAA|fgf c2f|"C7"efe cde|1"F"~f3"C"cfg:|2"F"~f3 "F"fcB|!
|"F"A3 Acf|a3 afc|A3 Acf|"Gm"g3 gec|!
"Gm"G2G GBd|"Bb"f3 g2e|"C"c2c cdB|"F"A3 "C"c=B_B|!
"F"A2A Acf|a3 a2f|A3 Acf|"Gm"g3 ef^f|!
"Gm"gag "Bb"fgf|"C"efe "Bb"ded|"C7"cdc BAG|"F"F6|]
